!!!ONB: MCCC : IJH0450_05 : Extracted Monophonic Melody
!!!COM: Haydn, Joseph
!!!OPR: String Quartet in E-flat major
!!!OMV: 5
!!!SCT: Hob.III:80 ; Op.76 No.6
!!!ODT: 1796///
**kern
*thru
*k[b-e-a-]
*E-:
*clefF
*M2/4
8b-
=1
8ee-
8b-
8gg
8ee-
=2
4aa-
8ff
8dd
=3
8ee-
8b-
8g
8e-
=4
4b-
8r
8B-
=5
8e-
8B-
8g
8e-
=6
4a-
8f
8d
=7
8e-
8c
8A-
8B-
=8
4e-
8r
8gg
=9
8ff
8b-
8a
8ee-
=10
4ee-
8dd
8gg
=11
8ff
8b-
8a
8ee-
=12
4ee-
8dd
8ff
=13
8bb-
8ff
8bb-
8ff
=14
8bb-
8ff
8bb-
8d
=15
8e-
8c
8f
8d
=16
4B-
16f
16f
16f
16f
=17
16f
16f
16f
16f
16f
16f
16f
16f
=18
16f
16f
16f
16f
16f
16f
16f
16f
=19
16f
16f
16f
16f
16f
16f
16f
16f
=20
16f
16f
16f
16f
16f
16f
16f
16f
=21
16f
16f
16f
16f
16f
16f
16f
16f
=22
4f
8r
8ff
=23
8bb-
8ff
8bb-
8ff
=24
16bb-
16aa
16bb-
16ccc
8ddd
8d
=25
8e-
8f
8g
8a
=26
16b-
16cc
16dd
16cc
8b-
8d
=27
4e-
4a
=28
4b-
8r
8f
=29
8b-
8f
8dd
8b-
=30
4ee-
8cc
8a
=31
8b-
8g
8e-
8f
=32
4B-
8r
8b-
=33
8ee-
8b-
8gg
8ee-
=34
4aa-
8ff
8dd
=35
8ee-
8b-
8g
8e-
=36
4b-
8r
8gg
=37
8bb-
8e-
8b-
8dd-
=38
8cc
8e-
8A-
8cc
=39
8gg
8c
8g
8b-
=40
8a-
8f
8A-
8ff
=41
16ff
16gg
16ff
16gg
8aa-
8cc
=42
16b
16g
16g
16g
16g
16g
16g
16g
=43
16g
16g
16g
16g
16g
16g
16g
16g
=44
16g
16g
16g
16g
16g
16g
16g
16g
=45
16g
16g
16g
16g
16g
16g
16g
16g
=46
8g
4r
8g
=47
4cc[
8.cc]
32dd
32ee-
=48
4dd
8r
8aa-
=49
8gg
8ff
8ee-
8dd
=50
4cc
8r
8g
=51
8cc
8g
8ee-
8b
=52
4cc
8r
8g
=53
8cc
8g
8e-
8c
=54
4g
8r
8b-
=55
8ee-
8b-
8gg
8ee-
=56
4aa-
8ff
8dd
=57
8ee-
8b-
8a-
8g
=58
8f
8B-
8r
8cc
=59
8b-
8e-
8d
8a-
=60
4a-
8g
8cc
=61
8b-
8ee-
8dd
8aa-
=62
4aa-
8gg
16bb-
16gg
=63
8ee-
8b-
8ee-
8b-
=64
8ee-
8b-
8ee-
8g
=65
8a-
8f
8b-
8g
=66
4e-
16B-
16B-
16B-
16B-
=67
16B-
16B-
16B-
16B-
16B-
16B-
16B-
16B-
=68
16B-
16B-
16B-
16B-
16B-
16B-
16B-
16B-
=69
16B-
16B-
16B-
16B-
16B-
16B-
16B-
16B-
=70
16B-
16B-
16B-
16B-
16B-
16B-
16B-
16B-
=71
16B-
16B-
16B-
16B-
16B-
16B-
16B-
16B-
=72
4B-
8r
8b-
=73
8ee-
8b-
8ee-
8b-
=74
16ee-
16dd
16ee-
16ff
8gg
8G
=75
8A-
8B-
8c
8d
=76
16e-
16f
16g
16f
8e-
8G
=77
4A-
4d
=78
4e-
4r
==
*-
